symbols/web/biotech/materialsymbolsrounded/biotech_wght500grad200fill1_24px.svg

<svg xmlns="http://www.w3.org/2000/svg" height="24" width="24"><path d="M10.275 9.55q-.7 0-1.175-.488-.475-.487-.475-1.162 0-.675.475-1.163.475-.487 1.175-.487.675 0 1.15.487.475.488.475 1.163t-.475 1.162q-.475.488-1.15.488Zm-4.6 11.925q-.55 0-.962-.4-.413-.4-.413-.975 0-.55.413-.95.412-.4.962-.4H9.4v-1.375q-2.175-.025-3.637-1.625-1.463-1.6-1.463-3.8 0-1.525.788-2.788Q5.875 7.9 7.2 7.225q-.175.725.013 1.45.187.725.712 1.275-.4.375-.637.887-.238.513-.238 1.113 0 1.15.8 1.925.8.775 1.925.775H16.9q.55 0 .95.4.4.4.4.975 0 .55-.4.95-.4.4-.95.4h-3.35v1.375h4.775q.55 0 .963.4.412.4.412.95 0 .575-.412.975-.413.4-.963.4Zm9.5-9.475q-.45.175-.887.025-.438-.15-.663-.5-.65.125-1.037-.1-.388-.225-.663-.725l-.075-.125q.675-.375 1.125-1.1.45-.725.45-1.575 0-1.5-1.15-2.425-1.15-.925-2.5-.7V4.8q-.125-.475 0-.925.125-.45.6-.725-.05-.5.2-.85t.675-.525q.45-.15.85-.013.4.138.7.538.575-.075.988.2.412.275.587.725l2.1 5.7q.2.55.038 1.013-.163.462-.638.687.1.475-.075.837-.175.363-.625.538Z"/></svg>

<svg xmlns="http://www.w3.org/2000/svg" height="24" width="24"><path d="M10.275 9.55Q9.575 9.55 9.1 9.062Q8.625 8.575 8.625 7.9Q8.625 7.225 9.1 6.737Q9.575 6.25 10.275 6.25Q10.95 6.25 11.425 6.737Q11.9 7.225 11.9 7.9Q11.9 8.575 11.425 9.062Q10.95 9.55 10.275 9.55ZM5.675 21.475Q5.125 21.475 4.713 21.075Q4.3 20.675 4.3 20.1Q4.3 19.55 4.713 19.15Q5.125 18.75 5.675 18.75H9.4V17.375Q7.225 17.35 5.763 15.75Q4.3 14.15 4.3 11.95Q4.3 10.425 5.088 9.162Q5.875 7.9 7.2 7.225Q7.025 7.95 7.213 8.675Q7.4 9.4 7.925 9.95Q7.525 10.325 7.288 10.837Q7.05 11.35 7.05 11.95Q7.05 13.1 7.85 13.875Q8.65 14.65 9.775 14.65H16.9Q17.45 14.65 17.85 15.05Q18.25 15.45 18.25 16.025Q18.25 16.575 17.85 16.975Q17.45 17.375 16.9 17.375H13.55V18.75H18.325Q18.875 18.75 19.288 19.15Q19.7 19.55 19.7 20.1Q19.7 20.675 19.288 21.075Q18.875 21.475 18.325 21.475ZM15.175 12Q14.725 12.175 14.288 12.025Q13.85 11.875 13.625 11.525Q12.975 11.65 12.588 11.425Q12.2 11.2 11.925 10.7L11.85 10.575Q12.525 10.2 12.975 9.475Q13.425 8.75 13.425 7.9Q13.425 6.4 12.275 5.475Q11.125 4.55 9.775 4.775V4.8Q9.65 4.325 9.775 3.875Q9.9 3.425 10.375 3.15Q10.325 2.65 10.575 2.3Q10.825 1.95 11.25 1.775Q11.7 1.625 12.1 1.762Q12.5 1.9 12.8 2.3Q13.375 2.225 13.788 2.5Q14.2 2.775 14.375 3.225L16.475 8.925Q16.675 9.475 16.513 9.938Q16.35 10.4 15.875 10.625Q15.975 11.1 15.8 11.462Q15.625 11.825 15.175 12Z"/></svg>
